assets/icons/outline/debug-display.svg

<svg width="24" height="24" viewBox="0 0 24 24" fill="none" xmlns="http://www.w3.org/2000/svg">
<path d="M6.43066 11.5117C6.70025 11.1974 7.17384 11.1611 7.48828 11.4307L10.9883 14.4307C11.1544 14.5731 11.25 14.7811 11.25 15C11.25 15.2189 11.1544 15.4269 10.9883 15.5693L7.48828 18.5693C7.17385 18.8388 6.70026 18.8026 6.43066 18.4883C6.16114 18.1738 6.19737 17.7003 6.51172 17.4307L9.34668 15L6.51172 12.5693C6.19737 12.2997 6.16115 11.8262 6.43066 11.5117Z" fill="#282828"/>
<path d="M18 14.25C18.4142 14.25 18.75 14.5858 18.75 15C18.75 15.4142 18.4142 15.75 18 15.75H14C13.5858 15.75 13.25 15.4142 13.25 15C13.25 14.5858 13.5858 14.25 14 14.25H18Z" fill="#282828"/>
<path d="M7 5C7.55228 5 8 5.44772 8 6C8 6.55228 7.55228 7 7 7C6.44772 7 6 6.55228 6 6C6 5.44772 6.44772 5 7 5Z" fill="#282828"/>
<path d="M10 5C10.5523 5 11 5.44772 11 6C11 6.55228 10.5523 7 10 7C9.44772 7 9 6.55228 9 6C9 5.44772 9.44772 5 10 5Z" fill="#282828"/>
<path fill-rule="evenodd" clip-rule="evenodd" d="M17 2.25C19.6234 2.25 21.75 4.37665 21.75 7V17C21.75 19.6234 19.6234 21.75 17 21.75H7C4.37665 21.75 2.25 19.6234 2.25 17V7C2.25 4.37665 4.37665 2.25 7 2.25H17ZM3.75 17C3.75 18.7949 5.20507 20.25 7 20.25H17C18.7949 20.25 20.25 18.7949 20.25 17V9.75H3.75V17ZM7 3.75C5.20507 3.75 3.75 5.20507 3.75 7V8.25H20.25V7C20.25 5.20507 18.7949 3.75 17 3.75H7Z" fill="#282828"/>
</svg>

<svg xmlns="http://www.w3.org/2000/svg" width="24" height="24" fill="none" viewBox="0 0 24 24"><path fill="#282828" d="M6.43 11.512a.75.75 0 0 1 1.058-.081l3.5 3a.75.75 0 0 1 0 1.138l-3.5 3a.75.75 0 0 1-.976-1.138L9.347 15l-2.835-2.43a.75.75 0 0 1-.081-1.058M18 14.25a.75.75 0 0 1 0 1.5h-4a.75.75 0 0 1 0-1.5zM7 5a1 1 0 1 1 0 2 1 1 0 0 1 0-2M10 5a1 1 0 1 1 0 2 1 1 0 0 1 0-2"/><path fill="#282828" fill-rule="evenodd" d="M17 2.25A4.75 4.75 0 0 1 21.75 7v10A4.75 4.75 0 0 1 17 21.75H7A4.75 4.75 0 0 1 2.25 17V7A4.75 4.75 0 0 1 7 2.25zM3.75 17A3.25 3.25 0 0 0 7 20.25h10A3.25 3.25 0 0 0 20.25 17V9.75H3.75zM7 3.75A3.25 3.25 0 0 0 3.75 7v1.25h16.5V7A3.25 3.25 0 0 0 17 3.75z" clip-rule="evenodd"/></svg>
